svg/color/snx.svg

<svg width="64" height="65" viewBox="0 0 64 65" fill="none" xmlns="http://www.w3.org/2000/svg">
<g clip-path="url(#clip0_11313_5409)">
<rect y="0.303711" width="64" height="64" rx="32" fill="white"/>
<path d="M31.9965 64.2968C49.6677 64.2968 63.9931 49.9715 63.9931 32.3003C63.9931 14.629 49.6677 0.303711 31.9965 0.303711C14.3253 0.303711 0 14.629 0 32.3003C0 49.9715 14.3253 64.2968 31.9965 64.2968Z" fill="url(#paint0_linear_11313_5409)"/>
<path d="M21.4574 24.3451C21.2017 24.0276 20.8136 23.8512 20.3991 23.8512H11.8532C11.7826 23.8512 11.7209 23.8247 11.668 23.7806C11.6239 23.7365 11.5974 23.6836 11.5974 23.6219V17.8628C11.5974 17.8011 11.6239 17.7482 11.668 17.7041C11.7209 17.6512 11.7826 17.6247 11.8532 17.6335H20.8842C23.1596 17.6335 25.1263 18.5684 26.7843 20.4293L28.9803 23.1104L24.7029 28.3226L21.4574 24.3451ZM37.244 20.4028C38.8932 18.5596 40.8688 17.6335 43.1706 17.6335H52.1752C52.2369 17.6247 52.2986 17.6512 52.3427 17.6865C52.3868 17.7306 52.4045 17.7923 52.3956 17.8628V23.6219C52.3956 23.6836 52.378 23.7365 52.3427 23.7806C52.2986 23.8335 52.2369 23.86 52.1752 23.8512H43.6292C43.2235 23.8424 42.8355 24.0276 42.5709 24.3451L36.2739 32.0091L42.5974 39.726C42.8531 40.017 43.2324 40.1934 43.6204 40.1846H52.1663C52.2281 40.1758 52.2986 40.211 52.3339 40.2551C52.3692 40.3081 52.3956 40.3786 52.3868 40.4403V46.1994C52.3868 46.2611 52.3692 46.314 52.3339 46.3581C52.2898 46.411 52.2281 46.4375 52.1663 46.4287H43.1706C40.8688 46.4287 38.9109 45.4938 37.2705 43.6329L32.0318 37.2389L26.7931 43.6329C25.1439 45.4938 23.1684 46.4287 20.8665 46.4287H11.8532C11.7914 46.4375 11.7209 46.4022 11.6856 46.3581C11.6415 46.3052 11.6239 46.2346 11.6327 46.1729V40.4139C11.6327 40.3521 11.6503 40.2992 11.6856 40.2551C11.7297 40.2022 11.7914 40.1758 11.8532 40.1846H20.3991C20.8048 40.1846 21.1928 39.9994 21.4574 39.6907L27.6398 32.1413L37.244 20.4028Z" fill="#00D1FF"/>
</g>
<rect x="0.5" y="0.803711" width="63" height="63" rx="31.5" stroke="#070B14" stroke-opacity="0.15"/>
<defs>
<linearGradient id="paint0_linear_11313_5409" x1="32.0009" y1="0.303526" x2="32.0009" y2="17.2366" gradientUnits="userSpaceOnUse">
<stop stop-color="#090220"/>
<stop offset="1" stop-color="#170659"/>
</linearGradient>
<clipPath id="clip0_11313_5409">
<rect y="0.303711" width="64" height="64" rx="32" fill="white"/>
</clipPath>
</defs>
</svg>

<svg xmlns="http://www.w3.org/2000/svg" width="64" height="65" fill="none" viewBox="0 0 64 65"><g clip-path="url(#snx_svg-a)"><rect width="64" height="64" y=".304" fill="#fff" rx="32"/><path fill="url(#snx_svg-b)" d="M31.997 64.297c17.67 0 31.996-14.325 31.996-31.997C63.993 14.63 49.668.304 31.997.304 14.325.304 0 14.629 0 32.3c0 17.672 14.325 31.997 31.997 31.997"/><path fill="#00D1FF" d="M21.457 24.345a1.35 1.35 0 0 0-1.058-.494h-8.546a.3.3 0 0 1-.185-.07.22.22 0 0 1-.07-.16v-5.758a.22.22 0 0 1 .07-.159.22.22 0 0 1 .185-.07h9.031q3.413.002 5.9 2.795l2.196 2.681-4.277 5.213zm15.787-3.942c1.65-1.843 3.625-2.77 5.927-2.77h9.004a.23.23 0 0 1 .168.053.2.2 0 0 1 .053.177v5.759a.25.25 0 0 1-.053.159.19.19 0 0 1-.168.07H43.63a1.35 1.35 0 0 0-1.058.494l-6.297 7.664 6.323 7.717a1.34 1.34 0 0 0 1.023.459h8.546a.2.2 0 0 1 .168.07.3.3 0 0 1 .053.185v5.76a.25.25 0 0 1-.053.158.19.19 0 0 1-.168.07h-8.995c-2.302 0-4.26-.934-5.9-2.795l-5.24-6.394-5.238 6.394c-1.65 1.86-3.625 2.796-5.927 2.796h-9.013a.2.2 0 0 1-.167-.07.24.24 0 0 1-.053-.186v-5.76q0-.091.053-.158a.19.19 0 0 1 .167-.07H20.4c.406 0 .794-.186 1.058-.494l6.183-7.55z"/></g><rect width="63" height="63" x=".5" y=".804" stroke="#070B14" stroke-opacity=".15" rx="31.5"/><defs><linearGradient id="snx_svg-b" x1="32.001" x2="32.001" y1=".304" y2="17.237" gradientUnits="userSpaceOnUse"><stop stop-color="#090220"/><stop offset="1" stop-color="#170659"/></linearGradient><clipPath id="snx_svg-a"><rect width="64" height="64" y=".304" fill="#fff" rx="32"/></clipPath></defs></svg>
